X: 1
T: Colored Aristocracy
R: cakewalk or march
M: C
L: 1/8
Z: Contributed 2008-07-09 17:54:46 by barbara shultz barbarashultz@flash.net
K: E Minor
D2E2F2 | G3A GED2 | G6A2 | B2Bc BAG2 | E8 | e3f gfe2 | d3e d2B2 | A2B2c2^c2 |
d2D2E2F2 | G3A GED2 | G6A2 | B2Bc BAG2 | E6 e2 | e3f gfe2 | d^cde d2B2 |
BAB(d d)B A2 | G6 || e2 | g3a ged2 | e8 | e2eg e2d2 | B8 | c2cd e2 dc | BABc d2 B2 |
A2B2c2^c2 | d2^d2e2f2 | g3a ged2 | e8 | e2eg e2d2 | B8 | c2cd e2dc | BABc d2B2 |
BAB(d d)BA2 | G6 ||
